X:1
T: Colonel Farquharson of Invercauld
C:Alexander Walker
R:Strathspey
Q: 128
K:Dm
M:4/4
L:1/16
|:A,3D FEDC AD3 F4|A,3D FEDC AD3 F3d|fa3 d3f eg3 c3d|f3d e3c dD3 D4|
A,3D FEDC AD3 F4|A,3D FEDC AD3 F3d|fa3 d3f eg3 c3d|f3d e3c dD3 D2e2|
f3d A3d F3d E3d|A3c G3c EC3 C3e|f3d A3d F3d E3d|f3a g3e fd3 d3e|
f3d A3d F3d E3d|A3c G3c EC3 C3E|D3A, D3E F3G A3a|f3d e3c dD3 D4:|
